icons/mail-code.svg

<svg xmlns="http://www.w3.org/2000/svg" viewBox="0 0 24 24" fill="currentColor">
  <path d="M3.53735 7.55005c0-1.28579.96422-2.25 2.25-2.25H17.7874c1.2857 0 2.25.96421 2.25 2.25V12.55c0 .4143.3357.75.75.75.4142 0 .75-.3357.75-.75V7.55005c0-2.11421-1.6358-3.75-3.75-3.75H5.78735c-2.11421 0-3.75 1.63579-3.75 3.75V15.55c0 2.1143 1.63579 3.75 3.75 3.75h6.00005c.4142 0 .75-.3357.75-.75 0-.4142-.3358-.75-.75-.75H5.78735c-1.28578 0-2.25-.9642-2.25-2.25V7.55005Zm2.591.33196c-.3689-.18838-.82066-.04203-1.00903.32687-.18838.3689-.04204.82066.32686 1.00904l4.70002 2.39998v.0001l.0057.0028c1.0223.5112 2.1587.4951 3.24.0145.0123-.0054.0245-.0112.0365-.0174l4.7-2.39998c.3689-.18838.5152-.64014.3268-1.00904-.1884-.3689-.6401-.51525-1.009-.32687l-4.6811 2.39039c-.7108.3109-1.3675.2933-1.9398.0081L6.12835 7.88201ZM16.4178 15.1198c.2929.2929.2929.7678 0 1.0607l-1.3697 1.3696 1.3697 1.3697c.2929.2929.2929.7678 0 1.0607-.2929.2929-.7678.2929-1.0607 0l-1.4-1.4001c-.2705-.2705-.4446-.6296-.4446-1.0303 0-.4007.1741-.7598.4446-1.0303l1.4-1.4c.2929-.2929.7678-.2929 1.0607 0Zm3.6999-.1001c-.2929-.2929-.7677-.2929-1.0606 0-.2929.2929-.2929.7678 0 1.0607l1.3696 1.3697-1.3696 1.3696c-.2929.2929-.2929.7678 0 1.0607.2929.2929.7677.2929 1.0606 0l1.4-1.4c.2705-.2705.4447-.6296.4447-1.0303 0-.4007-.1742-.7598-.4447-1.0304l-1.4-1.4Z"/>
</svg>

<svg width="24" height="24" viewBox="0 0 24 24" fill="none" xmlns="http://www.w3.org/2000/svg">
<path fill-rule="evenodd" clip-rule="evenodd" d="M3.53735 7.55005C3.53735 6.26426 4.50157 5.30005 5.78735 5.30005H17.7874C19.0731 5.30005 20.0374 6.26426 20.0374 7.55005V12.55C20.0374 12.9643 20.3731 13.3 20.7874 13.3C21.2016 13.3 21.5374 12.9643 21.5374 12.55V7.55005C21.5374 5.43584 19.9016 3.80005 17.7874 3.80005H5.78735C3.67314 3.80005 2.03735 5.43584 2.03735 7.55005V15.55C2.03735 17.6643 3.67314 19.3 5.78735 19.3H11.7874C12.2016 19.3 12.5374 18.9643 12.5374 18.55C12.5374 18.1358 12.2016 17.8 11.7874 17.8H5.78735C4.50157 17.8 3.53735 16.8358 3.53735 15.55V7.55005ZM6.12835 7.88201C5.75945 7.69363 5.30769 7.83998 5.11932 8.20888C4.93094 8.57778 5.07728 9.02954 5.44618 9.21792L10.1462 11.6179L10.1462 11.618L10.1519 11.6208C11.1742 12.132 12.3106 12.1159 13.3919 11.6353C13.4042 11.6299 13.4164 11.6241 13.4284 11.6179L18.1284 9.21792C18.4973 9.02954 18.6436 8.57778 18.4552 8.20888C18.2668 7.83998 17.8151 7.69363 17.4462 7.88201L12.7651 10.2724C12.0543 10.5833 11.3976 10.5657 10.8253 10.2805L6.12835 7.88201ZM16.4178 15.1198C16.7107 15.4127 16.7107 15.8876 16.4178 16.1805L15.0481 17.5501L16.4178 18.9198C16.7107 19.2127 16.7107 19.6876 16.4178 19.9805C16.1249 20.2734 15.65 20.2734 15.3571 19.9805L13.9571 18.5804L13.9571 18.5804C13.6866 18.3099 13.5125 17.9508 13.5125 17.5501C13.5125 17.1494 13.6866 16.7903 13.9571 16.5198L13.9571 16.5198L15.3571 15.1198C15.65 14.8269 16.1249 14.8269 16.4178 15.1198ZM20.1177 15.0197C19.8248 14.7268 19.35 14.7268 19.0571 15.0197C18.7642 15.3126 18.7642 15.7875 19.0571 16.0804L20.4267 17.4501L19.0571 18.8197C18.7642 19.1126 18.7642 19.5875 19.0571 19.8804C19.35 20.1733 19.8248 20.1733 20.1177 19.8804L21.5177 18.4804C21.7882 18.2099 21.9624 17.8508 21.9624 17.4501C21.9624 17.0494 21.7882 16.6903 21.5177 16.4197L20.1177 15.0197Z" fill="black"/>
</svg>
